svg/fluentui-system-icons/ic_fluent_space_3d_28_regular.svg

<svg width="28" height="28" viewBox="0 0 28 28" fill="none" xmlns="http://www.w3.org/2000/svg">
<path d="M3 6.75C3 4.67893 4.67893 3 6.75 3H21.25C23.3211 3 25 4.67893 25 6.75V21.25C25 23.3211 23.3211 25 21.25 25H6.75C4.67893 25 3 23.3211 3 21.25V6.75ZM6.75 4.5C5.50736 4.5 4.5 5.50736 4.5 6.75V13H23.5V6.75C23.5 5.50736 22.4926 4.5 21.25 4.5H6.75ZM4.5 17.1744L6.63953 14.5H4.5V17.1744ZM5.76047 18H10.2942L11.3891 14.5H8.56047L5.76047 18ZM4.5 19.5V21.25C4.5 22.4926 5.50736 23.5 6.75 23.5H8.57377L9.82503 19.5H4.5ZM11.3967 19.5L10.1454 23.5H18.3546L17.1033 19.5H11.3967ZM18.675 19.5L19.9262 23.5H21.25C22.4926 23.5 23.5 22.4926 23.5 21.25V19.5H18.675ZM22.2395 18L19.4395 14.5H17.1109L18.2058 18H22.2395ZM16.6341 18L15.5392 14.5H12.9608L11.8659 18H16.6341ZM23.5 17.1744V14.5H21.3605L23.5 17.1744Z" fill="#212121"/>
</svg>

<svg xmlns="http://www.w3.org/2000/svg" width="28" height="28"><path d="M3 6.75A3.75 3.75 0 0 1 6.75 3h14.5A3.75 3.75 0 0 1 25 6.75v14.5A3.75 3.75 0 0 1 21.25 25H6.75A3.75 3.75 0 0 1 3 21.25V6.75ZM6.75 4.5A2.25 2.25 0 0 0 4.5 6.75V13h19V6.75a2.25 2.25 0 0 0-2.25-2.25H6.75ZM4.5 17.174 6.64 14.5H4.5v2.674ZM5.76 18h4.534l1.095-3.5H8.56L5.76 18ZM4.5 19.5v1.75a2.25 2.25 0 0 0 2.25 2.25h1.824l1.251-4H4.5Zm6.897 0-1.252 4h8.21l-1.252-4h-5.706Zm7.278 0 1.251 4h1.324a2.25 2.25 0 0 0 2.25-2.25V19.5h-4.825Zm3.564-1.5-2.8-3.5h-2.328l1.095 3.5h4.034Zm-5.605 0-1.095-3.5h-2.578L11.866 18h4.768Zm6.866-.826V14.5h-2.14l2.14 2.674Z"/></svg>
